X:246
T: SIEH AN MEINES LIEBES KIND
N: E0831A
O: Europa, Mitteleuropa, Deutschland, Hessen, Unter- Lahn- u. Dillkreis
R: Hochzeits -, Ehestands - Lied
M: 3/4
L: 1/8
K: G
 | D2GABc | d2dcB2
d2e2d2 | c2B2z2
D2GABc | d2dcB2
d2e2d2 | c2B2z2
d2d2d2 | e3cA2
ABc2c2 | Bdd2z2
d2d2d2 | d2efg2
e2d2B2 | A2G2z2

